F1 Grump/assets/track outlines/Suzuka - White_1.svg

<svg xmlns="http://www.w3.org/2000/svg" viewBox="0 0 4375.38 2850.33"><defs><style>.cls-1{fill:#fff;}</style></defs><title>Suzuka - White_1</title><g id="Layer_2" data-name="Layer 2"><g id="Layer_1-2" data-name="Layer 1"><path class="cls-1" d="M1279.81,2524.6q-75.75,0-75.75,57.07,0,31.82,17.42,43.68t70.7,23.74q53.28,11.86,75.5,30.8t22.22,62.37q0,107.56-111.61,107.56-36.87,0-92.41-8.58l-18.18-2.53,4-32.32q68.67,9.09,104.53,9.09,74.73,0,74.74-70.19,0-28.27-16.41-40.65t-61.36-21q-59.09-12.61-83.83-32.57t-24.74-66.92q0-93.93,112.61-93.93,36.85,0,88.38,7.58l17.17,2.52-3.54,32.83Q1309.09,2524.61,1279.81,2524.6Z"/><path class="cls-1" d="M1493.42,2740.24q0,75.75,81.81,75.75,42.42,0,63.88-17.93t21.46-57.82V2495.82H1699v243.41q0,58.59-31,84.84t-91.66,26.26q-60.6,0-91.15-26.26t-30.56-84.84V2495.82h38.89Z"/><path class="cls-1" d="M1761.07,2530.16v-34.34h227.25v45.45l-182.81,259.57v10.1h182.81v34.84H1761.07v-44.94l182.3-259.57v-11.11Z"/><path class="cls-1" d="M2089.31,2740.24q0,75.75,81.81,75.75,42.42,0,63.89-17.93t21.46-57.82V2495.82h38.38v243.41q0,58.59-31.06,84.84t-91.65,26.26q-60.61,0-91.16-26.26t-30.55-84.84V2495.82h38.88Z"/><path class="cls-1" d="M2417.06,2845.28h-38.89V2495.82h38.89v162.61l57.57-2L2564,2495.82h44.44l-100,175.74L2614,2845.28h-46l-92.92-154.53-58.07,2Z"/><path class="cls-1" d="M2634.71,2845.28l95.95-349.46h84.84l95.95,349.46h-38.38l-25.25-89.89H2698.34l-25.25,89.89ZM2760,2529.15l-53,191.39h132.31l-53-191.39Z"/><path class="cls-1" d="M46.16,1750.83c62.43-73.14,130.58-60.22,156.13-55.39,2.3.45,4.27.86,5.86,1,42.4,2.11,100.37,10.24,161.78,18.86,67.6,9.48,137.52,19.27,194.55,22.29,22,1.15,51-27.73,79-55.64,37.15-37,79.27-79,136.22-89.36,73.4-13.35,142.51,21.79,203.51,52.77,46,23.37,89.4,45.44,124.17,42.26,40.18-3.66,69.92-38.37,104.38-78.56,36.74-42.84,78.41-91.41,142.39-108.15,75.84-19.81,163.2,13.78,203.86,57.74,18.77,20.27,42.16,59.63,69.26,105.2,21.36,35.95,57.17,96.12,70.3,106.06,23.32,14,69.73,22.18,100.69,17.48,41.48-6.3,93.31-25.36,132-48.53,39.68-23.77,96.17-60.71,127.34-106.14,27.72-40.32,75.45-118.83,83.73-191.93,8.45-74.26,1.56-175.28-17.54-257.34-13.74-59.06-44.23-200.4-30.89-237.44,10.8-30.1,108.68-159.36,109.66-160.67,109.9-144.94,126.34-146.8,153.12-137.26,11.92,4.23,73.22,37.61,152.15,82.24,11.39-5.9,22.93-11.67,34.37-17.39,24.5-12.29,49.84-25,72.66-38.37,35.23-20.69,82-48.38,135.17-79.8,178.05-105.34,421.9-249.59,551.69-320.36C3409,216,3525.67,161.61,3630.21,121.39c87.7-33.71,200.51-60.84,282.88-80.65L3940,34.26c151.14-36.67,257.24-43.93,315.36-21.64,35.59,13.63,94.86,50.62,112.1,96.61,16.57,44.09,6.63,113.94-24.17,169.83-27.7,50.31-83.78,138.05-147.65,160.4-57.43,20.13-163.26-14.26-285.46-57.76-27.83-9.91-54.09-19.26-65.86-22-9.18-2.12-18.82-4.47-28.8-6.88-54.3-13.15-115.87-28.05-169.13-26.37-57.15,1.8-123.58,17.24-192.12,44.63-53,21.19-110.13,54.88-174.63,103C3214.07,523,3166.94,567,3135.45,608.64c-32.68,43.25-61.88,106.94-74.4,162.28-9.5,42-.61,87.73,8,132s31.87,115,45.81,157.31c2.82,8.61,5.29,16.11,7.22,22.11,2,6.18,5.71,15.09,9.64,24.53,19.93,47.74,57.06,136.56-17.95,176.56-29,15.46-52.12,12.45-66.44,7.2-38-13.91-54.12-54.79-68.38-90.87-4.44-11.19-8.62-21.79-12.79-29.71-3.14-6-6.48-12.61-10-19.54-18.68-36.69-46.87-92.16-74.26-111-68-46.87-240.53-147.79-375-224.3-25,14.55-46.59,29.78-61.77,47.09-.22.23-.44.49-.66.75-27.12,31.77-58.62,120.82-74.65,189.11-29.12,124.08-20,259.74-13.32,358.78,7.54,112,12.33,235.47-9.34,302.26-10.5,32.46-45,33.64-67.78,34.45-21.37.74-45.56,1.59-57.18,14.89l0,0c-3.93,4.6-1.9,19.87-.11,33.34,2.08,15.81,4.45,33.71,1,52.11-7,38.13-14.92,75-33.41,107.59-21.5,38-54,68-77.47,86.45-26.8,21.13-76.67,60.43-129,76.55-53.48,16.49-144.4,35.06-224.55,33-278.53-6.94-1214.66-25.15-1499-25.74-44-.07-111.65-25-144.1-65-14.72-18.17-143-179.59-110.27-246.17,13-26.38,26.77-47.29,40.84-63.8m2055-53.58c-39.45,46.22-93.51,81.54-133,105.17-47,28.15-107.94,50.46-159,58.23-48.37,7.33-111.67-4.29-150.51-27.62-25.27-15.2-52.6-59.77-95.07-131.2-21.79-36.66-46.52-78.21-60-92.8-21.52-23.25-80.52-49.61-130.94-36.42-41.54,10.86-72.28,46.69-104.82,84.64-39.28,45.81-83.81,97.76-153.93,104.15-56,5.12-111.11-22.88-164.41-50-53-27-107.89-54.85-156.76-45.94-34.24,6.21-66.2,38.08-97.15,68.9-39.49,39.36-80.35,80.06-135.23,77.15-60.24-3.15-131.76-13.18-201-22.89-59.71-8.37-116.1-16.28-155.78-18.27a114.07,114.07,0,0,1-15.33-2.19c-26.32-5-70.21-13.28-115,75.75,1.66,25.21,51.63,110.69,99.8,170.18,15.07,18.61,58.91,37.63,86.86,37.69,284.8.58,1221.92,18.79,1500.68,25.74,66.66,1.67,148.92-13.74,200.88-29.76,39.08-12.06,81.91-45.8,104.92-63.94,26.17-20.61,46.51-43,58.83-64.73,12.83-22.62,18.91-51.66,25-84.49,1.25-6.82-.23-18.07-1.66-28.92-3.46-26-8.15-61.49,17.18-91.16l.65-.76c32.79-37.51,81.38-39.22,110.43-40.22,1.32-.07,2.73-.11,4.2-.16,14.17-69.76,5.11-204.13,1.52-257.43-7-103.72-16.56-245.79,15.11-380.69,3.81-16.25,38.55-159.5,90.54-220.44.41-.48.82-.94,1.23-1.41,12.74-14.53,27.9-27.51,44.6-39.42-38.39-21.51-69.39-38.56-87.59-48.18-44.32,45.64-166.78,212.38-183.37,244.19-1.51,20.28,11.14,103.45,32.79,196.53,21.18,91,28.45,199.25,19,282.47-9.61,84.63-57.69,169.39-96.32,225.59a274.69,274.69,0,0,1-17.44,22.62m229-979.6-.1.12ZM4221.26,328.06c18.93-22.19,38.94-51.51,57.22-84.63,24.43-44.36,26.17-90.69,19.65-108-6-15.95-40.35-42.49-69.42-53.64-19.89-7.62-86.12-20.5-271.44,24.48l-27,6.49c-80.37,19.34-190.46,45.81-273.6,77.78-101.58,39.08-215.06,92-319.56,149-128.64,70.13-371.85,214-549.43,319.07-53.24,31.48-100.09,59.22-135.41,79.92-21.79,12.8-44.77,24.55-67.3,35.86,131.63,75.61,281.4,164.42,339,204.13,42.79,29.52,73.48,89.86,98.14,138.34,3.38,6.65,6.58,13,9.61,18.75,6,11.39,11.08,24.34,16.05,36.84,6,15.3,17.21,43.55,25,48.58h0c.24-.29,2.43-.83,6.22-2.86,15.16-8.24-5.53-58.46-15.6-82.58-4.57-10.92-8.87-21.23-11.82-30.4-1.9-5.88-4.32-13.23-7.07-21.62-14.48-44-38.7-117.63-48.16-166.32-9.58-49.32-20.45-105.21-7.52-162.43,11.68-51.57,40.83-128.72,87.58-190.63,36.28-48.07,86.81-95.47,159-149.32,69.73-52,132.37-88.82,191.46-112.43,77.55-31,150.64-47.77,217.28-49.9,63.28-2,132.9,14.87,188.85,28.41,9.75,2.36,19.15,4.64,28.13,6.72,15.89,3.69,41.48,12.81,73.92,24.36,59.48,21.17,198.76,70.77,236.2,57.66,13.82-4.85,31.37-19.74,50-41.53"/></g></g></svg>

<svg width="4375" height="2152" viewBox="0 0 4375 2152" fill="none" xmlns="http://www.w3.org/2000/svg">
<g clip-path="url(#clip0_13_848)">
<path d="M46.1588 1750.83C108.589 1677.69 176.739 1690.61 202.289 1695.44C204.589 1695.89 206.559 1696.3 208.149 1696.44C250.549 1698.55 308.519 1706.68 369.929 1715.3C437.529 1724.78 507.449 1734.57 564.479 1737.59C586.479 1738.74 615.479 1709.86 643.479 1681.95C680.629 1644.95 722.749 1602.95 779.699 1592.59C853.099 1579.24 922.209 1614.38 983.209 1645.36C1029.21 1668.73 1072.61 1690.8 1107.38 1687.62C1147.56 1683.96 1177.3 1649.25 1211.76 1609.06C1248.5 1566.22 1290.17 1517.65 1354.15 1500.91C1429.99 1481.1 1517.35 1514.69 1558.01 1558.65C1576.78 1578.92 1600.17 1618.28 1627.27 1663.85C1648.63 1699.8 1684.44 1759.97 1697.57 1769.91C1720.89 1783.91 1767.3 1792.09 1798.26 1787.39C1839.74 1781.09 1891.57 1762.03 1930.26 1738.86C1969.94 1715.09 2026.43 1678.15 2057.6 1632.72C2085.32 1592.4 2133.05 1513.89 2141.33 1440.79C2149.78 1366.53 2142.89 1265.51 2123.79 1183.45C2110.05 1124.39 2079.56 983.05 2092.9 946.01C2103.7 915.91 2201.58 786.65 2202.56 785.34C2312.46 640.4 2328.9 638.54 2355.68 648.08C2367.6 652.31 2428.9 685.69 2507.83 730.32C2519.22 724.42 2530.76 718.65 2542.2 712.93C2566.7 700.64 2592.04 687.93 2614.86 674.56C2650.09 653.87 2696.86 626.18 2750.03 594.76C2928.08 489.42 3171.93 345.17 3301.72 274.4C3409 216 3525.67 161.61 3630.21 121.39C3717.91 87.6802 3830.72 60.5502 3913.09 40.7402L3940 34.2602C4091.14 -2.40978 4197.24 -9.66978 4255.36 12.6202C4290.95 26.2502 4350.22 63.2402 4367.46 109.23C4384.03 153.32 4374.09 223.17 4343.29 279.06C4315.59 329.37 4259.51 417.11 4195.64 439.46C4138.21 459.59 4032.38 425.2 3910.18 381.7C3882.35 371.79 3856.09 362.44 3844.32 359.7C3835.14 357.58 3825.5 355.23 3815.52 352.82C3761.22 339.67 3699.65 324.77 3646.39 326.45C3589.24 328.25 3522.81 343.69 3454.27 371.08C3401.27 392.27 3344.14 425.96 3279.64 474.08C3214.07 523 3166.94 567 3135.45 608.64C3102.77 651.89 3073.57 715.58 3061.05 770.92C3051.55 812.92 3060.44 858.65 3069.05 902.92C3077.66 947.19 3100.92 1017.92 3114.86 1060.23C3117.68 1068.84 3120.15 1076.34 3122.08 1082.34C3124.08 1088.52 3127.79 1097.43 3131.72 1106.87C3151.65 1154.61 3188.78 1243.43 3113.77 1283.43C3084.77 1298.89 3061.65 1295.88 3047.33 1290.63C3009.33 1276.72 2993.21 1235.84 2978.95 1199.76C2974.51 1188.57 2970.33 1177.97 2966.16 1170.05C2963.02 1164.05 2959.68 1157.44 2956.16 1150.51C2937.48 1113.82 2909.29 1058.35 2881.9 1039.51C2813.9 992.64 2641.37 891.72 2506.9 815.21C2481.9 829.76 2460.31 844.99 2445.13 862.3C2444.91 862.53 2444.69 862.79 2444.47 863.05C2417.35 894.82 2385.85 983.87 2369.82 1052.16C2340.7 1176.24 2349.82 1311.9 2356.5 1410.94C2364.04 1522.94 2368.83 1646.41 2347.16 1713.2C2336.66 1745.66 2302.16 1746.84 2279.38 1747.65C2258.01 1748.39 2233.82 1749.24 2222.2 1762.54C2218.27 1767.14 2220.3 1782.41 2222.09 1795.88C2224.17 1811.69 2226.54 1829.59 2223.09 1847.99C2216.09 1886.12 2208.17 1922.99 2189.68 1955.58C2168.18 1993.58 2135.68 2023.58 2112.21 2042.03C2085.41 2063.16 2035.54 2102.46 1983.21 2118.58C1929.73 2135.07 1838.81 2153.64 1758.66 2151.58C1480.13 2144.64 543.999 2126.43 259.659 2125.84C215.659 2125.77 148.009 2100.84 115.559 2060.84C100.839 2042.67 -27.4412 1881.25 5.28881 1814.67C18.2888 1788.29 32.0588 1767.38 46.1288 1750.87M2101.13 1697.29C2061.68 1743.51 2007.62 1778.83 1968.13 1802.46C1921.13 1830.61 1860.19 1852.92 1809.13 1860.69C1760.76 1868.02 1697.46 1856.4 1658.62 1833.07C1633.35 1817.87 1606.02 1773.3 1563.55 1701.87C1541.76 1665.21 1517.03 1623.66 1503.55 1609.07C1482.03 1585.82 1423.03 1559.46 1372.61 1572.65C1331.07 1583.51 1300.33 1619.34 1267.79 1657.29C1228.51 1703.1 1183.98 1755.05 1113.86 1761.44C1057.86 1766.56 1002.75 1738.56 949.449 1711.44C896.449 1684.44 841.559 1656.59 792.689 1665.5C758.449 1671.71 726.489 1703.58 695.539 1734.4C656.049 1773.76 615.189 1814.46 560.309 1811.55C500.069 1808.4 428.549 1798.37 359.309 1788.66C299.599 1780.29 243.209 1772.38 203.529 1770.39C198.375 1770.01 193.253 1769.28 188.199 1768.2C161.879 1763.2 117.989 1754.92 73.1988 1843.95C74.8588 1869.16 124.829 1954.64 172.999 2014.13C188.069 2032.74 231.909 2051.76 259.859 2051.82C544.659 2052.4 1481.78 2070.61 1760.54 2077.56C1827.2 2079.23 1909.46 2063.82 1961.42 2047.8C2000.5 2035.74 2043.33 2002 2066.34 1983.86C2092.51 1963.25 2112.85 1940.86 2125.17 1919.13C2138 1896.51 2144.08 1867.47 2150.17 1834.64C2151.42 1827.82 2149.94 1816.57 2148.51 1805.72C2145.05 1779.72 2140.36 1744.23 2165.69 1714.56L2166.34 1713.8C2199.13 1676.29 2247.72 1674.58 2276.77 1673.58C2278.09 1673.51 2279.5 1673.47 2280.97 1673.42C2295.14 1603.66 2286.08 1469.29 2282.49 1415.99C2275.49 1312.27 2265.93 1170.2 2297.6 1035.3C2301.41 1019.05 2336.15 875.8 2388.14 814.86C2388.55 814.38 2388.96 813.92 2389.37 813.45C2402.11 798.92 2417.27 785.94 2433.97 774.03C2395.58 752.52 2364.58 735.47 2346.38 725.85C2302.06 771.49 2179.6 938.23 2163.01 970.04C2161.5 990.32 2174.15 1073.49 2195.8 1166.57C2216.98 1257.57 2224.25 1365.82 2214.8 1449.04C2205.19 1533.67 2157.11 1618.43 2118.48 1674.63C2113.06 1682.47 2107.24 1690.02 2101.04 1697.25M4221.26 328.06C4240.19 305.87 4260.2 276.55 4278.48 243.43C4302.91 199.07 4304.65 152.74 4298.13 135.43C4292.13 119.48 4257.78 92.9402 4228.71 81.7902C4208.82 74.1702 4142.59 61.2902 3957.27 106.27L3930.27 112.76C3849.9 132.1 3739.81 158.57 3656.67 190.54C3555.09 229.62 3441.61 282.54 3337.11 339.54C3208.47 409.67 2965.26 553.54 2787.68 658.61C2734.44 690.09 2687.59 717.83 2652.27 738.53C2630.48 751.33 2607.5 763.08 2584.97 774.39C2716.6 850 2866.37 938.81 2923.97 978.52C2966.76 1008.04 2997.45 1068.38 3022.11 1116.86C3025.49 1123.51 3028.69 1129.86 3031.72 1135.61C3037.72 1147 3042.8 1159.95 3047.77 1172.45C3053.77 1187.75 3064.98 1216 3072.77 1221.03C3073.01 1220.74 3075.2 1220.2 3078.99 1218.17C3094.15 1209.93 3073.46 1159.71 3063.39 1135.59C3058.82 1124.67 3054.52 1114.36 3051.57 1105.19C3049.67 1099.31 3047.25 1091.96 3044.5 1083.57C3030.02 1039.57 3005.8 965.94 2996.34 917.25C2986.76 867.93 2975.89 812.04 2988.82 754.82C3000.5 703.25 3029.65 626.1 3076.4 564.19C3112.68 516.12 3163.21 468.72 3235.4 414.87C3305.13 362.87 3367.77 326.05 3426.86 302.44C3504.41 271.44 3577.5 254.67 3644.14 252.54C3707.42 250.54 3777.04 267.41 3832.99 280.95C3842.74 283.31 3852.14 285.59 3861.12 287.67C3877.01 291.36 3902.6 300.48 3935.04 312.03C3994.52 333.2 4133.8 382.8 4171.24 369.69C4185.06 364.84 4202.61 349.95 4221.24 328.16" fill="white"/>
</g>
<defs>
<clipPath id="clip0_13_848">
<rect width="4375" height="2152" fill="white"/>
</clipPath>
</defs>
</svg>
